(G-CODE GENERATED BY FLATCAM v8.994 - www.flatcam.org - Version Date: 2020/11/7)

(Name: fastPlotter-rounded-Edge_Cuts.gbr_cutout_cnc)
(Type: G-code from Geometry)
(Units: MM)

(Created on Friday, 23 August 2024 at 14:05)

(This preprocessor is the default preprocessor used by FlatCAM.)
(It is made to work with MACH3 compatible motion controllers.)

(TOOL DIAMETER: 3.175 mm)
(Feedrate_XY: 80.0 mm/min)
(Feedrate_Z: 60.0 mm/min)
(Feedrate rapids 1500.0 mm/min)

(Z_Cut: -2.1 mm)
(DepthPerCut: 0.6 mm <=>4 passes)
(Z_Move: 2.0 mm)
(Z Start: None mm)
(Z End: 15.0 mm)
(X,Y End: None mm)
(Steps per circle: 64)
(Preprocessor Geometry: default)

(X range:   -1.2575 ...   97.4175  mm)
(Y range:  -52.6025 ...    1.6225  mm)

(Spindle Speed: 0.0 RPM)
G21
G90
G94

G01 F80.00

M5
G00 Z15.0000
G00 X0.0000 Y0.0000
T1
M6    
(MSG, Change to Tool Dia = 3.1750)
M0
G00 Z15.0000

M03
G01 F80.00
G00 X97.4175 Y-3.2638
G01 F60.00
G01 Z-0.6000
G01 F80.00
G01 X97.4175 Y-47.7150
G01 X97.4170 Y-47.7576
G01 X97.4154 Y-47.7990
G01 X97.4002 Y-48.1102
G01 X97.3941 Y-48.1928
G01 X97.3837 Y-48.2775
G01 X97.3380 Y-48.5857
G01 X97.3238 Y-48.6673
G01 X97.3052 Y-48.7505
G01 X97.2295 Y-49.0528
G01 X97.2074 Y-49.1326
G01 X97.1807 Y-49.2136
G01 X97.0757 Y-49.5069
G01 X97.0459 Y-49.5842
G01 X97.0114 Y-49.6622
G01 X96.8782 Y-49.9439
G01 X96.8410 Y-50.0179
G01 X96.7990 Y-50.0921
G01 X96.6388 Y-50.3593
G01 X96.5945 Y-50.4293
G01 X96.5454 Y-50.4991
G01 X96.3598 Y-50.7493
G01 X96.3089 Y-50.8146
G01 X96.2532 Y-50.8793
G01 X96.0440 Y-51.1101
G01 X95.9868 Y-51.1701
G01 X95.9251 Y-51.2290
G01 X95.6943 Y-51.4382
G01 X95.6315 Y-51.4923
G01 X95.5643 Y-51.5448
G01 X95.3141 Y-51.7304
G01 X95.2464 Y-51.7781
G01 X95.1743 Y-51.8238
G01 X94.9071 Y-51.9840
G01 X94.8350 Y-52.0248
G01 X94.7589 Y-52.0632
G01 X94.4772 Y-52.1964
G01 X94.4015 Y-52.2300
G01 X94.3219 Y-52.2607
G01 X94.0286 Y-52.3657
G01 X93.9499 Y-52.3917
G01 X93.8678 Y-52.4145
G01 X93.5655 Y-52.4902
G01 X93.4847 Y-52.5083
G01 X93.4007 Y-52.5230
G01 X93.0925 Y-52.5687
G01 X93.0103 Y-52.5788
G01 X92.9252 Y-52.5852
G01 X92.6140 Y-52.6004
G01 X92.5714 Y-52.6020
G01 X92.5300 Y-52.6025
G01 X3.6300 Y-52.6025
G01 X3.5886 Y-52.6020
G01 X3.5460 Y-52.6004
G01 X3.2348 Y-52.5852
G01 X3.1522 Y-52.5791
G01 X3.0675 Y-52.5687
G01 X2.7593 Y-52.5230
G01 X2.6777 Y-52.5088
G01 X2.5945 Y-52.4902
G01 X2.2922 Y-52.4145
G01 X2.2124 Y-52.3924
G01 X2.1314 Y-52.3657
G01 X1.8381 Y-52.2607
G01 X1.7608 Y-52.2309
G01 X1.6828 Y-52.1964
G01 X1.4011 Y-52.0632
G01 X1.3271 Y-52.0260
G01 X1.2529 Y-51.9840
G01 X0.9857 Y-51.8238
G01 X0.9157 Y-51.7795
G01 X0.8459 Y-51.7304
G01 X0.5957 Y-51.5448
G01 X0.5304 Y-51.4939
G01 X0.4657 Y-51.4382
G01 X0.2349 Y-51.2290
G01 X0.1749 Y-51.1718
G01 X0.1160 Y-51.1101
G01 X-0.0932 Y-50.8793
G01 X-0.1473 Y-50.8165
G01 X-0.1998 Y-50.7493
G01 X-0.3854 Y-50.4991
G01 X-0.4331 Y-50.4314
G01 X-0.4788 Y-50.3593
G01 X-0.6390 Y-50.0921
G01 X-0.6798 Y-50.0200
G01 X-0.7182 Y-49.9439
G01 X-0.8514 Y-49.6622
G01 X-0.8850 Y-49.5865
G01 X-0.9157 Y-49.5069
G01 X-1.0207 Y-49.2136
G01 X-1.0467 Y-49.1349
G01 X-1.0695 Y-49.0528
G01 X-1.1452 Y-48.7505
G01 X-1.1633 Y-48.6697
G01 X-1.1780 Y-48.5857
G01 X-1.2237 Y-48.2775
G01 X-1.2338 Y-48.1953
G01 X-1.2402 Y-48.1102
G01 X-1.2554 Y-47.7990
G01 X-1.2570 Y-47.7564
G01 X-1.2575 Y-47.7150
G01 X-1.2575 Y-3.2650
G01 X-1.2570 Y-3.2249
G01 X-1.2557 Y-3.1859
G01 X-1.2421 Y-2.8930
G01 X-1.2367 Y-2.8152
G01 X-1.2275 Y-2.7355
G01 X-1.1870 Y-2.4450
G01 X-1.1745 Y-2.3681
G01 X-1.1580 Y-2.2895
G01 X-1.0908 Y-2.0040
G01 X-1.0706 Y-1.9264
G01 X-1.0475 Y-1.8519
G01 X-0.9543 Y-1.5738
G01 X-0.9279 Y-1.5005
G01 X-0.8972 Y-1.4263
G01 X-0.7787 Y-1.1581
G01 X-0.7456 Y-1.0875
G01 X-0.7082 Y-1.0165
G01 X-0.5655 Y-0.7603
G01 X-0.5248 Y-0.6911
G01 X-0.4823 Y-0.6258
G01 X-0.3165 Y-0.3838
G01 X-0.2710 Y-0.3206
G01 X-0.2212 Y-0.2576
G01 X-0.0338 Y-0.0320
G01 X0.0173 Y0.0268
G01 X0.0727 Y0.0849
G01 X0.2801 Y0.2923
G01 X0.3382 Y0.3477
G01 X0.3970 Y0.3988
G01 X0.6226 Y0.5862
G01 X0.6837 Y0.6346
G01 X0.7488 Y0.6815
G01 X0.9908 Y0.8473
G01 X1.0561 Y0.8898
G01 X1.1253 Y0.9305
G01 X1.3815 Y1.0732
G01 X1.4525 Y1.1106
G01 X1.5231 Y1.1437
G01 X1.7913 Y1.2622
G01 X1.8634 Y1.2920
G01 X1.9388 Y1.3193
G01 X2.2169 Y1.4125
G01 X2.2914 Y1.4356
G01 X2.3690 Y1.4558
G01 X2.6545 Y1.5230
G01 X2.7308 Y1.5391
G01 X2.8100 Y1.5520
G01 X3.1005 Y1.5925
G01 X3.1779 Y1.6015
G01 X3.2580 Y1.6071
G01 X3.5509 Y1.6207
G01 X3.5910 Y1.6221
G01 X3.6300 Y1.6225
G01 X92.5300 Y1.6225
G01 X92.5726 Y1.6220
G01 X92.6140 Y1.6204
G01 X92.9252 Y1.6052
G01 X93.0103 Y1.5988
G01 X93.0925 Y1.5887
G01 X93.4007 Y1.5430
G01 X93.4847 Y1.5283
G01 X93.5655 Y1.5102
G01 X93.8678 Y1.4345
G01 X93.9499 Y1.4117
G01 X94.0286 Y1.3857
G01 X94.3219 Y1.2807
G01 X94.4015 Y1.2500
G01 X94.4772 Y1.2164
G01 X94.7589 Y1.0832
G01 X94.8350 Y1.0448
G01 X94.9071 Y1.0040
G01 X95.1743 Y0.8438
G01 X95.2464 Y0.7981
G01 X95.3141 Y0.7504
G01 X95.5643 Y0.5648
G01 X95.6315 Y0.5123
G01 X95.6943 Y0.4582
G01 X95.9251 Y0.2490
G01 X95.9868 Y0.1901
G01 X96.0440 Y0.1301
G01 X96.2532 Y-0.1007
G01 X96.3073 Y-0.1635
G01 X96.3598 Y-0.2307
G01 X96.5454 Y-0.4809
G01 X96.5931 Y-0.5486
G01 X96.6388 Y-0.6207
G01 X96.7990 Y-0.8879
G01 X96.8398 Y-0.9600
G01 X96.8782 Y-1.0361
G01 X97.0114 Y-1.3178
G01 X97.0450 Y-1.3935
G01 X97.0757 Y-1.4731
G01 X97.1807 Y-1.7664
G01 X97.2067 Y-1.8451
G01 X97.2295 Y-1.9272
G01 X97.3052 Y-2.2295
G01 X97.3233 Y-2.3103
G01 X97.3380 Y-2.3943
G01 X97.3837 Y-2.7025
G01 X97.3938 Y-2.7847
G01 X97.4002 Y-2.8698
G01 X97.4154 Y-3.1810
G01 X97.4175 Y-3.2638
G00 X97.4175 Y-3.2638
G01 F60.00
G01 Z-1.2000
G01 F80.00
G01 X97.4154 Y-3.1810
G01 X97.4002 Y-2.8698
G01 X97.3938 Y-2.7847
G01 X97.3837 Y-2.7025
G01 X97.3380 Y-2.3943
G01 X97.3233 Y-2.3103
G01 X97.3052 Y-2.2295
G01 X97.2295 Y-1.9272
G01 X97.2067 Y-1.8451
G01 X97.1807 Y-1.7664
G01 X97.0757 Y-1.4731
G01 X97.0450 Y-1.3935
G01 X97.0114 Y-1.3178
G01 X96.8782 Y-1.0361
G01 X96.8398 Y-0.9600
G01 X96.7990 Y-0.8879
G01 X96.6388 Y-0.6207
G01 X96.5931 Y-0.5486
G01 X96.5454 Y-0.4809
G01 X96.3598 Y-0.2307
G01 X96.3073 Y-0.1635
G01 X96.2532 Y-0.1007
G01 X96.0440 Y0.1301
G01 X95.9868 Y0.1901
G01 X95.9251 Y0.2490
G01 X95.6943 Y0.4582
G01 X95.6315 Y0.5123
G01 X95.5643 Y0.5648
G01 X95.3141 Y0.7504
G01 X95.2464 Y0.7981
G01 X95.1743 Y0.8438
G01 X94.9071 Y1.0040
G01 X94.8350 Y1.0448
G01 X94.7589 Y1.0832
G01 X94.4772 Y1.2164
G01 X94.4015 Y1.2500
G01 X94.3219 Y1.2807
G01 X94.0286 Y1.3857
G01 X93.9499 Y1.4117
G01 X93.8678 Y1.4345
G01 X93.5655 Y1.5102
G01 X93.4847 Y1.5283
G01 X93.4007 Y1.5430
G01 X93.0925 Y1.5887
G01 X93.0103 Y1.5988
G01 X92.9252 Y1.6052
G01 X92.6140 Y1.6204
G01 X92.5726 Y1.6220
G01 X92.5300 Y1.6225
G01 X3.6300 Y1.6225
G01 X3.5910 Y1.6221
G01 X3.5509 Y1.6207
G01 X3.2580 Y1.6071
G01 X3.1779 Y1.6015
G01 X3.1005 Y1.5925
G01 X2.8100 Y1.5520
G01 X2.7308 Y1.5391
G01 X2.6545 Y1.5230
G01 X2.3690 Y1.4558
G01 X2.2914 Y1.4356
G01 X2.2169 Y1.4125
G01 X1.9388 Y1.3193
G01 X1.8634 Y1.2920
G01 X1.7913 Y1.2622
G01 X1.5231 Y1.1437
G01 X1.4525 Y1.1106
G01 X1.3815 Y1.0732
G01 X1.1253 Y0.9305
G01 X1.0561 Y0.8898
G01 X0.9908 Y0.8473
G01 X0.7488 Y0.6815
G01 X0.6837 Y0.6346
G01 X0.6226 Y0.5862
G01 X0.3970 Y0.3988
G01 X0.3382 Y0.3477
G01 X0.2801 Y0.2923
G01 X0.0727 Y0.0849
G01 X0.0173 Y0.0268
G01 X-0.0338 Y-0.0320
G01 X-0.2212 Y-0.2576
G01 X-0.2710 Y-0.3206
G01 X-0.3165 Y-0.3838
G01 X-0.4823 Y-0.6258
G01 X-0.5248 Y-0.6911
G01 X-0.5655 Y-0.7603
G01 X-0.7082 Y-1.0165
G01 X-0.7456 Y-1.0875
G01 X-0.7787 Y-1.1581
G01 X-0.8972 Y-1.4263
G01 X-0.9279 Y-1.5005
G01 X-0.9543 Y-1.5738
G01 X-1.0475 Y-1.8519
G01 X-1.0706 Y-1.9264
G01 X-1.0908 Y-2.0040
G01 X-1.1580 Y-2.2895
G01 X-1.1745 Y-2.3681
G01 X-1.1870 Y-2.4450
G01 X-1.2275 Y-2.7355
G01 X-1.2367 Y-2.8152
G01 X-1.2421 Y-2.8930
G01 X-1.2557 Y-3.1859
G01 X-1.2570 Y-3.2249
G01 X-1.2575 Y-3.2650
G01 X-1.2575 Y-47.7150
G01 X-1.2570 Y-47.7564
G01 X-1.2554 Y-47.7990
G01 X-1.2402 Y-48.1102
G01 X-1.2338 Y-48.1953
G01 X-1.2237 Y-48.2775
G01 X-1.1780 Y-48.5857
G01 X-1.1633 Y-48.6697
G01 X-1.1452 Y-48.7505
G01 X-1.0695 Y-49.0528
G01 X-1.0467 Y-49.1349
G01 X-1.0207 Y-49.2136
G01 X-0.9157 Y-49.5069
G01 X-0.8850 Y-49.5865
G01 X-0.8514 Y-49.6622
G01 X-0.7182 Y-49.9439
G01 X-0.6798 Y-50.0200
G01 X-0.6390 Y-50.0921
G01 X-0.4788 Y-50.3593
G01 X-0.4331 Y-50.4314
G01 X-0.3854 Y-50.4991
G01 X-0.1998 Y-50.7493
G01 X-0.1473 Y-50.8165
G01 X-0.0932 Y-50.8793
G01 X0.1160 Y-51.1101
G01 X0.1749 Y-51.1718
G01 X0.2349 Y-51.2290
G01 X0.4657 Y-51.4382
G01 X0.5304 Y-51.4939
G01 X0.5957 Y-51.5448
G01 X0.8459 Y-51.7304
G01 X0.9157 Y-51.7795
G01 X0.9857 Y-51.8238
G01 X1.2529 Y-51.9840
G01 X1.3271 Y-52.0260
G01 X1.4011 Y-52.0632
G01 X1.6828 Y-52.1964
G01 X1.7608 Y-52.2309
G01 X1.8381 Y-52.2607
G01 X2.1314 Y-52.3657
G01 X2.2124 Y-52.3924
G01 X2.2922 Y-52.4145
G01 X2.5945 Y-52.4902
G01 X2.6777 Y-52.5088
G01 X2.7593 Y-52.5230
G01 X3.0675 Y-52.5687
G01 X3.1522 Y-52.5791
G01 X3.2348 Y-52.5852
G01 X3.5460 Y-52.6004
G01 X3.5886 Y-52.6020
G01 X3.6300 Y-52.6025
G01 X92.5300 Y-52.6025
G01 X92.5714 Y-52.6020
G01 X92.6140 Y-52.6004
G01 X92.9252 Y-52.5852
G01 X93.0103 Y-52.5788
G01 X93.0925 Y-52.5687
G01 X93.4007 Y-52.5230
G01 X93.4847 Y-52.5083
G01 X93.5655 Y-52.4902
G01 X93.8678 Y-52.4145
G01 X93.9499 Y-52.3917
G01 X94.0286 Y-52.3657
G01 X94.3219 Y-52.2607
G01 X94.4015 Y-52.2300
G01 X94.4772 Y-52.1964
G01 X94.7589 Y-52.0632
G01 X94.8350 Y-52.0248
G01 X94.9071 Y-51.9840
G01 X95.1743 Y-51.8238
G01 X95.2464 Y-51.7781
G01 X95.3141 Y-51.7304
G01 X95.5643 Y-51.5448
G01 X95.6315 Y-51.4923
G01 X95.6943 Y-51.4382
G01 X95.9251 Y-51.2290
G01 X95.9868 Y-51.1701
G01 X96.0440 Y-51.1101
G01 X96.2532 Y-50.8793
G01 X96.3089 Y-50.8146
G01 X96.3598 Y-50.7493
G01 X96.5454 Y-50.4991
G01 X96.5945 Y-50.4293
G01 X96.6388 Y-50.3593
G01 X96.7990 Y-50.0921
G01 X96.8410 Y-50.0179
G01 X96.8782 Y-49.9439
G01 X97.0114 Y-49.6622
G01 X97.0459 Y-49.5842
G01 X97.0757 Y-49.5069
G01 X97.1807 Y-49.2136
G01 X97.2074 Y-49.1326
G01 X97.2295 Y-49.0528
G01 X97.3052 Y-48.7505
G01 X97.3238 Y-48.6673
G01 X97.3380 Y-48.5857
G01 X97.3837 Y-48.2775
G01 X97.3941 Y-48.1928
G01 X97.4002 Y-48.1102
G01 X97.4154 Y-47.7990
G01 X97.4170 Y-47.7576
G01 X97.4175 Y-47.7150
G01 X97.4175 Y-3.2638
G00 X97.4175 Y-3.2638
G01 F60.00
G01 Z-1.8000
G01 F80.00
G01 X97.4175 Y-47.7150
G01 X97.4170 Y-47.7576
G01 X97.4154 Y-47.7990
G01 X97.4002 Y-48.1102
G01 X97.3941 Y-48.1928
G01 X97.3837 Y-48.2775
G01 X97.3380 Y-48.5857
G01 X97.3238 Y-48.6673
G01 X97.3052 Y-48.7505
G01 X97.2295 Y-49.0528
G01 X97.2074 Y-49.1326
G01 X97.1807 Y-49.2136
G01 X97.0757 Y-49.5069
G01 X97.0459 Y-49.5842
G01 X97.0114 Y-49.6622
G01 X96.8782 Y-49.9439
G01 X96.8410 Y-50.0179
G01 X96.7990 Y-50.0921
G01 X96.6388 Y-50.3593
G01 X96.5945 Y-50.4293
G01 X96.5454 Y-50.4991
G01 X96.3598 Y-50.7493
G01 X96.3089 Y-50.8146
G01 X96.2532 Y-50.8793
G01 X96.0440 Y-51.1101
G01 X95.9868 Y-51.1701
G01 X95.9251 Y-51.2290
G01 X95.6943 Y-51.4382
G01 X95.6315 Y-51.4923
G01 X95.5643 Y-51.5448
G01 X95.3141 Y-51.7304
G01 X95.2464 Y-51.7781
G01 X95.1743 Y-51.8238
G01 X94.9071 Y-51.9840
G01 X94.8350 Y-52.0248
G01 X94.7589 Y-52.0632
G01 X94.4772 Y-52.1964
G01 X94.4015 Y-52.2300
G01 X94.3219 Y-52.2607
G01 X94.0286 Y-52.3657
G01 X93.9499 Y-52.3917
G01 X93.8678 Y-52.4145
G01 X93.5655 Y-52.4902
G01 X93.4847 Y-52.5083
G01 X93.4007 Y-52.5230
G01 X93.0925 Y-52.5687
G01 X93.0103 Y-52.5788
G01 X92.9252 Y-52.5852
G01 X92.6140 Y-52.6004
G01 X92.5714 Y-52.6020
G01 X92.5300 Y-52.6025
G01 X3.6300 Y-52.6025
G01 X3.5886 Y-52.6020
G01 X3.5460 Y-52.6004
G01 X3.2348 Y-52.5852
G01 X3.1522 Y-52.5791
G01 X3.0675 Y-52.5687
G01 X2.7593 Y-52.5230
G01 X2.6777 Y-52.5088
G01 X2.5945 Y-52.4902
G01 X2.2922 Y-52.4145
G01 X2.2124 Y-52.3924
G01 X2.1314 Y-52.3657
G01 X1.8381 Y-52.2607
G01 X1.7608 Y-52.2309
G01 X1.6828 Y-52.1964
G01 X1.4011 Y-52.0632
G01 X1.3271 Y-52.0260
G01 X1.2529 Y-51.9840
G01 X0.9857 Y-51.8238
G01 X0.9157 Y-51.7795
G01 X0.8459 Y-51.7304
G01 X0.5957 Y-51.5448
G01 X0.5304 Y-51.4939
G01 X0.4657 Y-51.4382
G01 X0.2349 Y-51.2290
G01 X0.1749 Y-51.1718
G01 X0.1160 Y-51.1101
G01 X-0.0932 Y-50.8793
G01 X-0.1473 Y-50.8165
G01 X-0.1998 Y-50.7493
G01 X-0.3854 Y-50.4991
G01 X-0.4331 Y-50.4314
G01 X-0.4788 Y-50.3593
G01 X-0.6390 Y-50.0921
G01 X-0.6798 Y-50.0200
G01 X-0.7182 Y-49.9439
G01 X-0.8514 Y-49.6622
G01 X-0.8850 Y-49.5865
G01 X-0.9157 Y-49.5069
G01 X-1.0207 Y-49.2136
G01 X-1.0467 Y-49.1349
G01 X-1.0695 Y-49.0528
G01 X-1.1452 Y-48.7505
G01 X-1.1633 Y-48.6697
G01 X-1.1780 Y-48.5857
G01 X-1.2237 Y-48.2775
G01 X-1.2338 Y-48.1953
G01 X-1.2402 Y-48.1102
G01 X-1.2554 Y-47.7990
G01 X-1.2570 Y-47.7564
G01 X-1.2575 Y-47.7150
G01 X-1.2575 Y-3.2650
G01 X-1.2570 Y-3.2249
G01 X-1.2557 Y-3.1859
G01 X-1.2421 Y-2.8930
G01 X-1.2367 Y-2.8152
G01 X-1.2275 Y-2.7355
G01 X-1.1870 Y-2.4450
G01 X-1.1745 Y-2.3681
G01 X-1.1580 Y-2.2895
G01 X-1.0908 Y-2.0040
G01 X-1.0706 Y-1.9264
G01 X-1.0475 Y-1.8519
G01 X-0.9543 Y-1.5738
G01 X-0.9279 Y-1.5005
G01 X-0.8972 Y-1.4263
G01 X-0.7787 Y-1.1581
G01 X-0.7456 Y-1.0875
G01 X-0.7082 Y-1.0165
G01 X-0.5655 Y-0.7603
G01 X-0.5248 Y-0.6911
G01 X-0.4823 Y-0.6258
G01 X-0.3165 Y-0.3838
G01 X-0.2710 Y-0.3206
G01 X-0.2212 Y-0.2576
G01 X-0.0338 Y-0.0320
G01 X0.0173 Y0.0268
G01 X0.0727 Y0.0849
G01 X0.2801 Y0.2923
G01 X0.3382 Y0.3477
G01 X0.3970 Y0.3988
G01 X0.6226 Y0.5862
G01 X0.6837 Y0.6346
G01 X0.7488 Y0.6815
G01 X0.9908 Y0.8473
G01 X1.0561 Y0.8898
G01 X1.1253 Y0.9305
G01 X1.3815 Y1.0732
G01 X1.4525 Y1.1106
G01 X1.5231 Y1.1437
G01 X1.7913 Y1.2622
G01 X1.8634 Y1.2920
G01 X1.9388 Y1.3193
G01 X2.2169 Y1.4125
G01 X2.2914 Y1.4356
G01 X2.3690 Y1.4558
G01 X2.6545 Y1.5230
G01 X2.7308 Y1.5391
G01 X2.8100 Y1.5520
G01 X3.1005 Y1.5925
G01 X3.1779 Y1.6015
G01 X3.2580 Y1.6071
G01 X3.5509 Y1.6207
G01 X3.5910 Y1.6221
G01 X3.6300 Y1.6225
G01 X92.5300 Y1.6225
G01 X92.5726 Y1.6220
G01 X92.6140 Y1.6204
G01 X92.9252 Y1.6052
G01 X93.0103 Y1.5988
G01 X93.0925 Y1.5887
G01 X93.4007 Y1.5430
G01 X93.4847 Y1.5283
G01 X93.5655 Y1.5102
G01 X93.8678 Y1.4345
G01 X93.9499 Y1.4117
G01 X94.0286 Y1.3857
G01 X94.3219 Y1.2807
G01 X94.4015 Y1.2500
G01 X94.4772 Y1.2164
G01 X94.7589 Y1.0832
G01 X94.8350 Y1.0448
G01 X94.9071 Y1.0040
G01 X95.1743 Y0.8438
G01 X95.2464 Y0.7981
G01 X95.3141 Y0.7504
G01 X95.5643 Y0.5648
G01 X95.6315 Y0.5123
G01 X95.6943 Y0.4582
G01 X95.9251 Y0.2490
G01 X95.9868 Y0.1901
G01 X96.0440 Y0.1301
G01 X96.2532 Y-0.1007
G01 X96.3073 Y-0.1635
G01 X96.3598 Y-0.2307
G01 X96.5454 Y-0.4809
G01 X96.5931 Y-0.5486
G01 X96.6388 Y-0.6207
G01 X96.7990 Y-0.8879
G01 X96.8398 Y-0.9600
G01 X96.8782 Y-1.0361
G01 X97.0114 Y-1.3178
G01 X97.0450 Y-1.3935
G01 X97.0757 Y-1.4731
G01 X97.1807 Y-1.7664
G01 X97.2067 Y-1.8451
G01 X97.2295 Y-1.9272
G01 X97.3052 Y-2.2295
G01 X97.3233 Y-2.3103
G01 X97.3380 Y-2.3943
G01 X97.3837 Y-2.7025
G01 X97.3938 Y-2.7847
G01 X97.4002 Y-2.8698
G01 X97.4154 Y-3.1810
G01 X97.4175 Y-3.2638
G00 X97.4175 Y-3.2638
G01 F60.00
G01 Z-2.1000
G01 F80.00
G01 X97.4154 Y-3.1810
G01 X97.4002 Y-2.8698
G01 X97.3938 Y-2.7847
G01 X97.3837 Y-2.7025
G01 X97.3380 Y-2.3943
G01 X97.3233 Y-2.3103
G01 X97.3052 Y-2.2295
G01 X97.2295 Y-1.9272
G01 X97.2067 Y-1.8451
G01 X97.1807 Y-1.7664
G01 X97.0757 Y-1.4731
G01 X97.0450 Y-1.3935
G01 X97.0114 Y-1.3178
G01 X96.8782 Y-1.0361
G01 X96.8398 Y-0.9600
G01 X96.7990 Y-0.8879
G01 X96.6388 Y-0.6207
G01 X96.5931 Y-0.5486
G01 X96.5454 Y-0.4809
G01 X96.3598 Y-0.2307
G01 X96.3073 Y-0.1635
G01 X96.2532 Y-0.1007
G01 X96.0440 Y0.1301
G01 X95.9868 Y0.1901
G01 X95.9251 Y0.2490
G01 X95.6943 Y0.4582
G01 X95.6315 Y0.5123
G01 X95.5643 Y0.5648
G01 X95.3141 Y0.7504
G01 X95.2464 Y0.7981
G01 X95.1743 Y0.8438
G01 X94.9071 Y1.0040
G01 X94.8350 Y1.0448
G01 X94.7589 Y1.0832
G01 X94.4772 Y1.2164
G01 X94.4015 Y1.2500
G01 X94.3219 Y1.2807
G01 X94.0286 Y1.3857
G01 X93.9499 Y1.4117
G01 X93.8678 Y1.4345
G01 X93.5655 Y1.5102
G01 X93.4847 Y1.5283
G01 X93.4007 Y1.5430
G01 X93.0925 Y1.5887
G01 X93.0103 Y1.5988
G01 X92.9252 Y1.6052
G01 X92.6140 Y1.6204
G01 X92.5726 Y1.6220
G01 X92.5300 Y1.6225
G01 X3.6300 Y1.6225
G01 X3.5910 Y1.6221
G01 X3.5509 Y1.6207
G01 X3.2580 Y1.6071
G01 X3.1779 Y1.6015
G01 X3.1005 Y1.5925
G01 X2.8100 Y1.5520
G01 X2.7308 Y1.5391
G01 X2.6545 Y1.5230
G01 X2.3690 Y1.4558
G01 X2.2914 Y1.4356
G01 X2.2169 Y1.4125
G01 X1.9388 Y1.3193
G01 X1.8634 Y1.2920
G01 X1.7913 Y1.2622
G01 X1.5231 Y1.1437
G01 X1.4525 Y1.1106
G01 X1.3815 Y1.0732
G01 X1.1253 Y0.9305
G01 X1.0561 Y0.8898
G01 X0.9908 Y0.8473
G01 X0.7488 Y0.6815
G01 X0.6837 Y0.6346
G01 X0.6226 Y0.5862
G01 X0.3970 Y0.3988
G01 X0.3382 Y0.3477
G01 X0.2801 Y0.2923
G01 X0.0727 Y0.0849
G01 X0.0173 Y0.0268
G01 X-0.0338 Y-0.0320
G01 X-0.2212 Y-0.2576
G01 X-0.2710 Y-0.3206
G01 X-0.3165 Y-0.3838
G01 X-0.4823 Y-0.6258
G01 X-0.5248 Y-0.6911
G01 X-0.5655 Y-0.7603
G01 X-0.7082 Y-1.0165
G01 X-0.7456 Y-1.0875
G01 X-0.7787 Y-1.1581
G01 X-0.8972 Y-1.4263
G01 X-0.9279 Y-1.5005
G01 X-0.9543 Y-1.5738
G01 X-1.0475 Y-1.8519
G01 X-1.0706 Y-1.9264
G01 X-1.0908 Y-2.0040
G01 X-1.1580 Y-2.2895
G01 X-1.1745 Y-2.3681
G01 X-1.1870 Y-2.4450
G01 X-1.2275 Y-2.7355
G01 X-1.2367 Y-2.8152
G01 X-1.2421 Y-2.8930
G01 X-1.2557 Y-3.1859
G01 X-1.2570 Y-3.2249
G01 X-1.2575 Y-3.2650
G01 X-1.2575 Y-47.7150
G01 X-1.2570 Y-47.7564
G01 X-1.2554 Y-47.7990
G01 X-1.2402 Y-48.1102
G01 X-1.2338 Y-48.1953
G01 X-1.2237 Y-48.2775
G01 X-1.1780 Y-48.5857
G01 X-1.1633 Y-48.6697
G01 X-1.1452 Y-48.7505
G01 X-1.0695 Y-49.0528
G01 X-1.0467 Y-49.1349
G01 X-1.0207 Y-49.2136
G01 X-0.9157 Y-49.5069
G01 X-0.8850 Y-49.5865
G01 X-0.8514 Y-49.6622
G01 X-0.7182 Y-49.9439
G01 X-0.6798 Y-50.0200
G01 X-0.6390 Y-50.0921
G01 X-0.4788 Y-50.3593
G01 X-0.4331 Y-50.4314
G01 X-0.3854 Y-50.4991
G01 X-0.1998 Y-50.7493
G01 X-0.1473 Y-50.8165
G01 X-0.0932 Y-50.8793
G01 X0.1160 Y-51.1101
G01 X0.1749 Y-51.1718
G01 X0.2349 Y-51.2290
G01 X0.4657 Y-51.4382
G01 X0.5304 Y-51.4939
G01 X0.5957 Y-51.5448
G01 X0.8459 Y-51.7304
G01 X0.9157 Y-51.7795
G01 X0.9857 Y-51.8238
G01 X1.2529 Y-51.9840
G01 X1.3271 Y-52.0260
G01 X1.4011 Y-52.0632
G01 X1.6828 Y-52.1964
G01 X1.7608 Y-52.2309
G01 X1.8381 Y-52.2607
G01 X2.1314 Y-52.3657
G01 X2.2124 Y-52.3924
G01 X2.2922 Y-52.4145
G01 X2.5945 Y-52.4902
G01 X2.6777 Y-52.5088
G01 X2.7593 Y-52.5230
G01 X3.0675 Y-52.5687
G01 X3.1522 Y-52.5791
G01 X3.2348 Y-52.5852
G01 X3.5460 Y-52.6004
G01 X3.5886 Y-52.6020
G01 X3.6300 Y-52.6025
G01 X92.5300 Y-52.6025
G01 X92.5714 Y-52.6020
G01 X92.6140 Y-52.6004
G01 X92.9252 Y-52.5852
G01 X93.0103 Y-52.5788
G01 X93.0925 Y-52.5687
G01 X93.4007 Y-52.5230
G01 X93.4847 Y-52.5083
G01 X93.5655 Y-52.4902
G01 X93.8678 Y-52.4145
G01 X93.9499 Y-52.3917
G01 X94.0286 Y-52.3657
G01 X94.3219 Y-52.2607
G01 X94.4015 Y-52.2300
G01 X94.4772 Y-52.1964
G01 X94.7589 Y-52.0632
G01 X94.8350 Y-52.0248
G01 X94.9071 Y-51.9840
G01 X95.1743 Y-51.8238
G01 X95.2464 Y-51.7781
G01 X95.3141 Y-51.7304
G01 X95.5643 Y-51.5448
G01 X95.6315 Y-51.4923
G01 X95.6943 Y-51.4382
G01 X95.9251 Y-51.2290
G01 X95.9868 Y-51.1701
G01 X96.0440 Y-51.1101
G01 X96.2532 Y-50.8793
G01 X96.3089 Y-50.8146
G01 X96.3598 Y-50.7493
G01 X96.5454 Y-50.4991
G01 X96.5945 Y-50.4293
G01 X96.6388 Y-50.3593
G01 X96.7990 Y-50.0921
G01 X96.8410 Y-50.0179
G01 X96.8782 Y-49.9439
G01 X97.0114 Y-49.6622
G01 X97.0459 Y-49.5842
G01 X97.0757 Y-49.5069
G01 X97.1807 Y-49.2136
G01 X97.2074 Y-49.1326
G01 X97.2295 Y-49.0528
G01 X97.3052 Y-48.7505
G01 X97.3238 Y-48.6673
G01 X97.3380 Y-48.5857
G01 X97.3837 Y-48.2775
G01 X97.3941 Y-48.1928
G01 X97.4002 Y-48.1102
G01 X97.4154 Y-47.7990
G01 X97.4170 Y-47.7576
G01 X97.4175 Y-47.7150
G01 X97.4175 Y-3.2638
G00 Z2.0000
M05
G00 Z2.0000
G00 Z15.00


