(G-CODE GENERATED BY FLATCAM v8.994 - www.flatcam.org - Version Date: 2020/11/7)

(Name: fastPlotter-rounded-PTH.drl_cnc)
(Type: G-code from Geometry)
(Units: MM)

(Created on Friday, 23 August 2024 at 14:04)

(This preprocessor is the default preprocessor used by FlatCAM.)
(It is made to work with MACH3 compatible motion controllers.)


(TOOLS DIAMETER: )
(Tool: 1 -> Dia: 0.7619999999999999)
(Tool: 2 -> Dia: 0.8000999999999999)
(Tool: 3 -> Dia: 1.0007599999999999)
(Tool: 4 -> Dia: 1.0998199999999998)
(Tool: 5 -> Dia: 2.9997399999999996)

(FEEDRATE Z: )
(Tool: 1 -> Feedrate: 140.0)
(Tool: 2 -> Feedrate: 140.0)
(Tool: 3 -> Feedrate: 140.0)
(Tool: 4 -> Feedrate: 140.0)
(Tool: 5 -> Feedrate: 140.0)

(FEEDRATE RAPIDS: )
(Tool: 1 -> Feedrate Rapids: 1500)
(Tool: 2 -> Feedrate Rapids: 1500)
(Tool: 3 -> Feedrate Rapids: 1500)
(Tool: 4 -> Feedrate Rapids: 1500)
(Tool: 5 -> Feedrate Rapids: 1500)

(Z_CUT: )
(Tool: 1 -> Z_Cut: -4.0)
(Tool: 2 -> Z_Cut: -4.0)
(Tool: 3 -> Z_Cut: -4.0)
(Tool: 4 -> Z_Cut: -4.0)
(Tool: 5 -> Z_Cut: -4.0)

(Tools Offset: )
(Tool: 1 -> Offset Z: 0.0)
(Tool: 2 -> Offset Z: 0.0)
(Tool: 3 -> Offset Z: 0.0)
(Tool: 4 -> Offset Z: 0.0)
(Tool: 5 -> Offset Z: 0.0)

(Z_MOVE: )
(Tool: 1 -> Z_Move: 2)
(Tool: 2 -> Z_Move: 2)
(Tool: 3 -> Z_Move: 2)
(Tool: 4 -> Z_Move: 2)
(Tool: 5 -> Z_Move: 2)

(Z Toolchange: 15 mm)
(X,Y Toolchange: 0.0000, 0.0000 mm)
(Z Start: None mm)
(Z End: 0.5 mm)
(X,Y End: None mm)
(Steps per circle: 64)
(Preprocessor Excellon: default)

(X range:    1.3440 ...   94.0299  mm)
(Y range:  -49.2149 ...   -1.7651  mm)

(Spindle Speed: 0 RPM)
G21
G90
G94

G01 F140.00

M5
G00 Z15.0000
T1
G00 X0.0000 Y0.0000                
M6
(MSG, Change to Tool Dia = 0.7620 ||| Total drills for tool T1 = 40)
M0
G00 Z15.0000

G01 F140.00
M03
G00 X49.9850 Y-29.3000
G01 Z-4.0000
G01 Z0
G00 Z2.0000
G00 X47.4450 Y-29.3000
G01 Z-4.0000
G01 Z0
G00 Z2.0000
G00 X44.9050 Y-29.3000
G01 Z-4.0000
G01 Z0
G00 Z2.0000
G00 X42.3650 Y-29.3000
G01 Z-4.0000
G01 Z0
G00 Z2.0000
G00 X39.8250 Y-29.3000
G01 Z-4.0000
G01 Z0
G00 Z2.0000
G00 X37.2850 Y-29.3000
G01 Z-4.0000
G01 Z0
G00 Z2.0000
G00 X34.7450 Y-29.3000
G01 Z-4.0000
G01 Z0
G00 Z2.0000
G00 X32.2050 Y-29.3000
G01 Z-4.0000
G01 Z0
G00 Z2.0000
G00 X29.6650 Y-29.3000
G01 Z-4.0000
G01 Z0
G00 Z2.0000
G00 X27.1250 Y-29.3000
G01 Z-4.0000
G01 Z0
G00 Z2.0000
G00 X24.5850 Y-29.3000
G01 Z-4.0000
G01 Z0
G00 Z2.0000
G00 X22.0450 Y-29.3000
G01 Z-4.0000
G01 Z0
G00 Z2.0000
G00 X19.5050 Y-29.3000
G01 Z-4.0000
G01 Z0
G00 Z2.0000
G00 X16.9650 Y-29.3000
G01 Z-4.0000
G01 Z0
G00 Z2.0000
G00 X14.4250 Y-29.3000
G01 Z-4.0000
G01 Z0
G00 Z2.0000
G00 X11.8850 Y-29.3000
G01 Z-4.0000
G01 Z0
G00 Z2.0000
G00 X9.3450 Y-29.3000
G01 Z-4.0000
G01 Z0
G00 Z2.0000
G00 X6.8050 Y-29.3000
G01 Z-4.0000
G01 Z0
G00 Z2.0000
G00 X4.2650 Y-29.3000
G01 Z-4.0000
G01 Z0
G00 Z2.0000
G00 X1.7250 Y-29.3000
G01 Z-4.0000
G01 Z0
G00 Z2.0000
G00 X1.7250 Y-47.0800
G01 Z-4.0000
G01 Z0
G00 Z2.0000
G00 X4.2650 Y-47.0800
G01 Z-4.0000
G01 Z0
G00 Z2.0000
G00 X6.8050 Y-47.0800
G01 Z-4.0000
G01 Z0
G00 Z2.0000
G00 X9.3450 Y-47.0800
G01 Z-4.0000
G01 Z0
G00 Z2.0000
G00 X11.8850 Y-47.0800
G01 Z-4.0000
G01 Z0
G00 Z2.0000
G00 X14.4250 Y-47.0800
G01 Z-4.0000
G01 Z0
G00 Z2.0000
G00 X16.9650 Y-47.0800
G01 Z-4.0000
G01 Z0
G00 Z2.0000
G00 X19.5050 Y-47.0800
G01 Z-4.0000
G01 Z0
G00 Z2.0000
G00 X22.0450 Y-47.0800
G01 Z-4.0000
G01 Z0
G00 Z2.0000
G00 X24.5850 Y-47.0800
G01 Z-4.0000
G01 Z0
G00 Z2.0000
G00 X27.1250 Y-47.0800
G01 Z-4.0000
G01 Z0
G00 Z2.0000
G00 X29.6650 Y-47.0800
G01 Z-4.0000
G01 Z0
G00 Z2.0000
G00 X32.2050 Y-47.0800
G01 Z-4.0000
G01 Z0
G00 Z2.0000
G00 X34.7450 Y-47.0800
G01 Z-4.0000
G01 Z0
G00 Z2.0000
G00 X37.2850 Y-47.0800
G01 Z-4.0000
G01 Z0
G00 Z2.0000
G00 X39.8250 Y-47.0800
G01 Z-4.0000
G01 Z0
G00 Z2.0000
G00 X42.3650 Y-47.0800
G01 Z-4.0000
G01 Z0
G00 Z2.0000
G00 X44.9050 Y-47.0800
G01 Z-4.0000
G01 Z0
G00 Z2.0000
G00 X47.4450 Y-47.0800
G01 Z-4.0000
G01 Z0
G00 Z2.0000
G00 X49.9850 Y-47.0800
G01 Z-4.0000
G01 Z0
G00 Z2.0000
G01 F140.00

M5
G00 Z15.0000
T2
G00 X0.0000 Y0.0000                
M6
(MSG, Change to Tool Dia = 0.8001 ||| Total drills for tool T2 = 66)
M0
G00 Z15.0000

G01 F140.00
M03
G00 X89.3550 Y-8.9800
G01 Z-4.0000
G01 Z0
G00 Z2.0000
G00 X86.8150 Y-8.9800
G01 Z-4.0000
G01 Z0
G00 Z2.0000
G00 X84.2750 Y-8.9800
G01 Z-4.0000
G01 Z0
G00 Z2.0000
G00 X81.7350 Y-8.9800
G01 Z-4.0000
G01 Z0
G00 Z2.0000
G00 X79.1950 Y-8.9800
G01 Z-4.0000
G01 Z0
G00 Z2.0000
G00 X76.6550 Y-8.9800
G01 Z-4.0000
G01 Z0
G00 Z2.0000
G00 X74.1150 Y-8.9800
G01 Z-4.0000
G01 Z0
G00 Z2.0000
G00 X71.5750 Y-8.9800
G01 Z-4.0000
G01 Z0
G00 Z2.0000
G00 X66.4950 Y-8.9800
G01 Z-4.0000
G01 Z0
G00 Z2.0000
G00 X63.9550 Y-8.9800
G01 Z-4.0000
G01 Z0
G00 Z2.0000
G00 X61.4150 Y-8.9800
G01 Z-4.0000
G01 Z0
G00 Z2.0000
G00 X58.8750 Y-8.9800
G01 Z-4.0000
G01 Z0
G00 Z2.0000
G00 X56.3350 Y-8.9800
G01 Z-4.0000
G01 Z0
G00 Z2.0000
G00 X53.7950 Y-8.9800
G01 Z-4.0000
G01 Z0
G00 Z2.0000
G00 X51.2550 Y-8.9800
G01 Z-4.0000
G01 Z0
G00 Z2.0000
G00 X48.7150 Y-8.9800
G01 Z-4.0000
G01 Z0
G00 Z2.0000
G00 X43.6350 Y-8.9800
G01 Z-4.0000
G01 Z0
G00 Z2.0000
G00 X41.0950 Y-8.9800
G01 Z-4.0000
G01 Z0
G00 Z2.0000
G00 X38.5550 Y-8.9800
G01 Z-4.0000
G01 Z0
G00 Z2.0000
G00 X36.0150 Y-8.9800
G01 Z-4.0000
G01 Z0
G00 Z2.0000
G00 X33.4750 Y-8.9800
G01 Z-4.0000
G01 Z0
G00 Z2.0000
G00 X30.9350 Y-8.9800
G01 Z-4.0000
G01 Z0
G00 Z2.0000
G00 X28.3950 Y-8.9800
G01 Z-4.0000
G01 Z0
G00 Z2.0000
G00 X25.8550 Y-8.9800
G01 Z-4.0000
G01 Z0
G00 Z2.0000
G00 X20.7750 Y-8.9800
G01 Z-4.0000
G01 Z0
G00 Z2.0000
G00 X18.2350 Y-8.9800
G01 Z-4.0000
G01 Z0
G00 Z2.0000
G00 X15.6950 Y-8.9800
G01 Z-4.0000
G01 Z0
G00 Z2.0000
G00 X13.1550 Y-8.9800
G01 Z-4.0000
G01 Z0
G00 Z2.0000
G00 X10.6150 Y-8.9800
G01 Z-4.0000
G01 Z0
G00 Z2.0000
G00 X8.0750 Y-8.9800
G01 Z-4.0000
G01 Z0
G00 Z2.0000
G00 X5.5350 Y-8.9800
G01 Z-4.0000
G01 Z0
G00 Z2.0000
G00 X2.9950 Y-8.9800
G01 Z-4.0000
G01 Z0
G00 Z2.0000
G00 X2.9950 Y-21.6800
G01 Z-4.0000
G01 Z0
G00 Z2.0000
G00 X5.5350 Y-21.6800
G01 Z-4.0000
G01 Z0
G00 Z2.0000
G00 X8.0750 Y-21.6800
G01 Z-4.0000
G01 Z0
G00 Z2.0000
G00 X10.6150 Y-21.6800
G01 Z-4.0000
G01 Z0
G00 Z2.0000
G00 X13.1550 Y-21.6800
G01 Z-4.0000
G01 Z0
G00 Z2.0000
G00 X15.6950 Y-21.6800
G01 Z-4.0000
G01 Z0
G00 Z2.0000
G00 X18.2350 Y-21.6800
G01 Z-4.0000
G01 Z0
G00 Z2.0000
G00 X20.7750 Y-21.6800
G01 Z-4.0000
G01 Z0
G00 Z2.0000
G00 X25.8550 Y-21.6800
G01 Z-4.0000
G01 Z0
G00 Z2.0000
G00 X28.3950 Y-21.6800
G01 Z-4.0000
G01 Z0
G00 Z2.0000
G00 X30.9350 Y-21.6800
G01 Z-4.0000
G01 Z0
G00 Z2.0000
G00 X33.4750 Y-21.6800
G01 Z-4.0000
G01 Z0
G00 Z2.0000
G00 X36.0150 Y-21.6800
G01 Z-4.0000
G01 Z0
G00 Z2.0000
G00 X38.5550 Y-21.6800
G01 Z-4.0000
G01 Z0
G00 Z2.0000
G00 X41.0950 Y-21.6800
G01 Z-4.0000
G01 Z0
G00 Z2.0000
G00 X43.6350 Y-21.6800
G01 Z-4.0000
G01 Z0
G00 Z2.0000
G00 X48.7150 Y-21.6800
G01 Z-4.0000
G01 Z0
G00 Z2.0000
G00 X51.2550 Y-21.6800
G01 Z-4.0000
G01 Z0
G00 Z2.0000
G00 X53.7950 Y-21.6800
G01 Z-4.0000
G01 Z0
G00 Z2.0000
G00 X56.3350 Y-21.6800
G01 Z-4.0000
G01 Z0
G00 Z2.0000
G00 X58.8750 Y-21.6800
G01 Z-4.0000
G01 Z0
G00 Z2.0000
G00 X61.4150 Y-21.6800
G01 Z-4.0000
G01 Z0
G00 Z2.0000
G00 X63.9550 Y-21.6800
G01 Z-4.0000
G01 Z0
G00 Z2.0000
G00 X66.4950 Y-21.6800
G01 Z-4.0000
G01 Z0
G00 Z2.0000
G00 X71.5750 Y-21.6800
G01 Z-4.0000
G01 Z0
G00 Z2.0000
G00 X74.1150 Y-21.6800
G01 Z-4.0000
G01 Z0
G00 Z2.0000
G00 X76.6550 Y-21.6800
G01 Z-4.0000
G01 Z0
G00 Z2.0000
G00 X79.1950 Y-21.6800
G01 Z-4.0000
G01 Z0
G00 Z2.0000
G00 X81.7350 Y-21.6800
G01 Z-4.0000
G01 Z0
G00 Z2.0000
G00 X84.2750 Y-21.6800
G01 Z-4.0000
G01 Z0
G00 Z2.0000
G00 X83.0050 Y-30.5700
G01 Z-4.0000
G01 Z0
G00 Z2.0000
G00 X86.5051 Y-30.5700
G01 Z-4.0000
G01 Z0
G00 Z2.0000
G00 X86.8150 Y-21.6800
G01 Z-4.0000
G01 Z0
G00 Z2.0000
G00 X89.3550 Y-21.6800
G01 Z-4.0000
G01 Z0
G00 Z2.0000
G01 F140.00

M5
G00 Z15.0000
T3
G00 X0.0000 Y0.0000                
M6
(MSG, Change to Tool Dia = 1.0008 ||| Total drills for tool T3 = 26)
M0
G00 Z15.0000

G01 F140.00
M03
G00 X91.2600 Y-30.5700
G01 Z-4.0000
G01 Z0
G00 Z2.0000
G00 X91.2600 Y-33.1100
G01 Z-4.0000
G01 Z0
G00 Z2.0000
G00 X65.8600 Y-45.8100
G01 Z-4.0000
G01 Z0
G00 Z2.0000
G00 X65.8600 Y-48.3500
G01 Z-4.0000
G01 Z0
G00 Z2.0000
G00 X62.0500 Y-48.3500
G01 Z-4.0000
G01 Z0
G00 Z2.0000
G00 X62.0500 Y-45.8100
G01 Z-4.0000
G01 Z0
G00 Z2.0000
G00 X58.2400 Y-45.8100
G01 Z-4.0000
G01 Z0
G00 Z2.0000
G00 X58.2400 Y-48.3500
G01 Z-4.0000
G01 Z0
G00 Z2.0000
G00 X54.4300 Y-48.3551
G01 Z-4.0000
G01 Z0
G00 Z2.0000
G00 X54.4300 Y-45.8151
G01 Z-4.0000
G01 Z0
G00 Z2.0000
G00 X8.0750 Y-4.5350
G01 Z-4.0000
G01 Z0
G00 Z2.0000
G00 X10.6150 Y-4.5350
G01 Z-4.0000
G01 Z0
G00 Z2.0000
G00 X13.1550 Y-4.5350
G01 Z-4.0000
G01 Z0
G00 Z2.0000
G00 X15.6950 Y-4.5350
G01 Z-4.0000
G01 Z0
G00 Z2.0000
G00 X30.9350 Y-4.5248
G01 Z-4.0000
G01 Z0
G00 Z2.0000
G00 X33.4750 Y-4.5248
G01 Z-4.0000
G01 Z0
G00 Z2.0000
G00 X36.0150 Y-4.5248
G01 Z-4.0000
G01 Z0
G00 Z2.0000
G00 X38.5550 Y-4.5248
G01 Z-4.0000
G01 Z0
G00 Z2.0000
G00 X53.7950 Y-4.5248
G01 Z-4.0000
G01 Z0
G00 Z2.0000
G00 X56.3350 Y-4.5248
G01 Z-4.0000
G01 Z0
G00 Z2.0000
G00 X58.8750 Y-4.5248
G01 Z-4.0000
G01 Z0
G00 Z2.0000
G00 X61.4150 Y-4.5248
G01 Z-4.0000
G01 Z0
G00 Z2.0000
G00 X76.6550 Y-4.8906
G01 Z-4.0000
G01 Z0
G00 Z2.0000
G00 X79.1950 Y-4.8906
G01 Z-4.0000
G01 Z0
G00 Z2.0000
G00 X81.7350 Y-4.8906
G01 Z-4.0000
G01 Z0
G00 Z2.0000
G00 X84.2750 Y-4.8906
G01 Z-4.0000
G01 Z0
G00 Z2.0000
G01 F140.00

M5
G00 Z15.0000
T4
G00 X0.0000 Y0.0000                
M6
(MSG, Change to Tool Dia = 1.0998 ||| Total drills for tool T4 = 8)
M0
G00 Z15.0000

G01 F140.00
M03
G00 X76.7109 Y-30.5700
G01 Z-4.0000
G01 Z0
G00 Z2.0000
G00 X72.2100 Y-30.5700
G01 Z-4.0000
G01 Z0
G00 Z2.0000
G00 X66.2054 Y-30.5700
G01 Z-4.0000
G01 Z0
G00 Z2.0000
G00 X61.7046 Y-30.5700
G01 Z-4.0000
G01 Z0
G00 Z2.0000
G00 X61.7046 Y-37.0699
G01 Z-4.0000
G01 Z0
G00 Z2.0000
G00 X66.2054 Y-37.0699
G01 Z-4.0000
G01 Z0
G00 Z2.0000
G00 X72.2100 Y-37.0699
G01 Z-4.0000
G01 Z0
G00 Z2.0000
G00 X76.7109 Y-37.0699
G01 Z-4.0000
G01 Z0
G00 Z2.0000
G01 F140.00

M5
G00 Z15.0000
T5
G00 X0.0000 Y0.0000                
M6
(MSG, Change to Tool Dia = 2.9997 ||| Total drills for tool T5 = 3)
M0
G00 Z15.0000

G01 F140.00
M03
G00 X92.5300 Y-3.2650
G01 Z-4.0000
G01 Z0
G00 Z2.0000
G00 X74.7500 Y-47.7150
G01 Z-4.0000
G01 Z0
G00 Z2.0000
G00 X3.6300 Y-3.2650
G01 Z-4.0000
G01 Z0
G00 Z2.0000
M05
G00 Z0.50


